X: 12201
T: Factory Smoke, The
R: hornpipe
M: 4/4
K: Eminor
|:BA|GFED EFGA|B2 E2 E2 fe|dcBA GABG|(3ABA (3GFE D2 BA|
GFED EFGA|Be^df e2 eB|cBAG AcBA|1 G2 E2 E2:|2 G2 E2 E2||
|:ef|geBG eBGE|B,EGB egfe|fdAF dAFD|A,DFA BAGF|
GFED EFGA|Be^df e2 eB|cBAG AcBA|1 G2 E2 E2:|2 G2 E2 E2||

